assets/icons/colored/receipt.svg

<svg width="20" height="20" viewBox="0 0 20 20" fill="none" xmlns="http://www.w3.org/2000/svg">
<g clip-path="url(#clip0_1308_6675)">
<path d="M0 20L1.25 18.75L2.5 20L3.75 18.75L5 20L6.25 18.75L7.5 20L8.75 18.75L10 20L11.25 18.75L12.5 20L12.5 9.61539C12.5 4.30496 8.19504 1.19091e-06 2.88461 1.65517e-06Lnan nanL2.88461 1.65517e-06C1.29148 1.79444e-06 -1.63555e-06 1.29149 -1.49627e-06 2.88462L0 20Z" fill="#F0F0F7"/>
<path fill-rule="evenodd" clip-rule="evenodd" d="M0 20L1.25 18.75L2.5 20L3.75 18.75L5 20L6.25 18.75L7.5 20L8.75 18.75L10 20L11.25 18.75L12.5 20L12.5 9.61539C12.5 4.30495 8.19504 1.19091e-06 2.88461 1.65517e-06C1.29148 1.79444e-06 -1.63555e-06 1.29149 -1.49627e-06 2.88462L0 20ZM1.25 16.9822L1.25 2.88462C1.25 1.98184 1.98184 1.25 2.88461 1.25C7.50469 1.25 11.25 4.99531 11.25 9.61539L11.25 16.9822L10 18.2322L8.75 16.9822L7.5 18.2322L6.25 16.9822L5 18.2322L3.75 16.9822L2.5 18.2322L1.25 16.9822Z" fill="#1C1C1F"/>
<path d="M16.25 2.5C16.25 1.11929 15.1307 0 13.75 0H2.5C2.42267 0.327589 2.58912 0.657223 2.84798 0.872359C3.41199 1.3411 3.75 2.04242 3.75 2.79508V11.25C3.75 13.3211 5.42893 15 7.5 15H16.25V2.5Z" fill="#C2C9FF"/>
<path fill-rule="evenodd" clip-rule="evenodd" d="M4.66695 1.25003H13.75C14.4404 1.25003 15 1.80968 15 2.50003V13.75H7.5C6.11929 13.75 5 12.6307 5 11.25V2.79512C5 2.2522 4.88275 1.7271 4.66695 1.25003ZM13.75 3.24752e-05C15.1307 3.24752e-05 16.25 1.11932 16.25 2.50003V15H7.5C5.42893 15 3.75 13.3211 3.75 11.25V2.79512C3.75 2.22417 3.55551 1.68278 3.21541 1.25003C2.99144 0.965055 2.70433 0.727196 2.36803 0.55905L2.5 0L13.75 3.24752e-05Z" fill="#1C1C1F"/>
<path d="M11.25 3.125C11.25 2.77982 10.9702 2.5 10.625 2.5H6.875C6.52982 2.5 6.25 2.77982 6.25 3.125C6.25 3.47018 6.52982 3.75 6.875 3.75H10.625C10.9702 3.75 11.25 3.47018 11.25 3.125Z" fill="#1C1C1F"/>
<path d="M13.125 3.75C12.7798 3.75 12.5 3.47018 12.5 3.125C12.5 2.77982 12.7798 2.5 13.125 2.5C13.4702 2.5 13.75 2.77982 13.75 3.125C13.75 3.47018 13.4702 3.75 13.125 3.75Z" fill="#1C1C1F"/>
<path d="M13.125 8.75C12.7798 8.75 12.5 8.47018 12.5 8.125C12.5 7.77982 12.7798 7.5 13.125 7.5C13.4702 7.5 13.75 7.77982 13.75 8.125C13.75 8.47018 13.4702 8.75 13.125 8.75Z" fill="#1C1C1F"/>
<path d="M13.125 5C13.4702 5 13.75 5.27982 13.75 5.625C13.75 5.97018 13.4702 6.25 13.125 6.25H6.875C6.52982 6.25 6.25 5.97018 6.25 5.625C6.25 5.27982 6.52982 5 6.875 5H13.125Z" fill="#1C1C1F"/>
<path d="M11.25 8.125C11.25 7.77982 10.9702 7.5 10.625 7.5H6.875C6.52982 7.5 6.25 7.77982 6.25 8.125C6.25 8.47018 6.52982 8.75 6.875 8.75H10.625C10.9702 8.75 11.25 8.47018 11.25 8.125Z" fill="#1C1C1F"/>
<path d="M9.375 10C9.72018 10 10 10.2798 10 10.625C10 10.9702 9.72018 11.25 9.375 11.25H6.875C6.52982 11.25 6.25 10.9702 6.25 10.625C6.25 10.2798 6.52982 10 6.875 10H9.375Z" fill="#1C1C1F"/>
<path d="M20 11.25C20 10.5596 19.4404 10 18.75 10H12.3021C11.3758 10 10.625 10.7508 10.625 11.6771Lnan nanL10.625 11.6771C10.625 12.9475 9.90722 14.1089 8.7709 14.6771L8.125 15H17.5C18.8807 15 20 13.8807 20 12.5V11.25Z" fill="#F0F0F7"/>
<path fill-rule="evenodd" clip-rule="evenodd" d="M12.3021 11.25H18.75V12.5C18.75 13.1904 18.1904 13.75 17.5 13.75H11.382C11.7004 13.1186 11.875 12.4111 11.875 11.6771C11.875 11.4412 12.0662 11.25 12.3021 11.25ZM9.90777 13.75C10.3641 13.1694 10.625 12.4431 10.625 11.6771C10.625 10.7508 11.3758 10 12.3021 10H18.75C19.4404 10 20 10.5596 20 11.25V12.5C20 13.8807 18.8807 15 17.5 15H8.125L8.7709 14.6771C9.22208 14.4515 9.60728 14.1323 9.90777 13.75Z" fill="#1C1C1F"/>
</g>
<defs>
<clipPath id="clip0_1308_6675">
<rect width="20" height="20" fill="white"/>
</clipPath>
</defs>
</svg>

<svg width="20" height="20" fill="none" xmlns="http://www.w3.org/2000/svg">
    <g clip-path="url(#a)">
        <path d="m0 20 1.25-1.25L2.5 20l1.25-1.25L5 20l1.25-1.25L7.5 20l1.25-1.25L10 20l1.25-1.25L12.5 20V9.615A9.615 9.615 0 0 0 2.885 0" fill="#F0F0F7"/>
        <path fill-rule="evenodd" clip-rule="evenodd" d="m0 20 1.25-1.25L2.5 20l1.25-1.25L5 20l1.25-1.25L7.5 20l1.25-1.25L10 20l1.25-1.25L12.5 20V9.615A9.615 9.615 0 0 0 2.885 0 2.885 2.885 0 0 0 0 2.885V20Zm1.25-3.018V2.885c0-.903.732-1.635 1.635-1.635a8.365 8.365 0 0 1 8.365 8.365v7.367L10 18.232l-1.25-1.25-1.25 1.25-1.25-1.25L5 18.232l-1.25-1.25-1.25 1.25-1.25-1.25Z" fill="#1C1C1F"/>
        <path d="M16.25 2.5a2.5 2.5 0 0 0-2.5-2.5H2.5c-.077.328.09.657.348.872a2.5 2.5 0 0 1 .902 1.923v8.455A3.75 3.75 0 0 0 7.5 15h8.75V2.5Z" fill="#C2C9FF"/>
        <path fill-rule="evenodd" clip-rule="evenodd" d="M4.667 1.25h9.083c.69 0 1.25.56 1.25 1.25v11.25H7.5a2.5 2.5 0 0 1-2.5-2.5V2.795c0-.543-.117-1.068-.333-1.545ZM13.75 0a2.5 2.5 0 0 1 2.5 2.5V15H7.5a3.75 3.75 0 0 1-3.75-3.75V2.795A2.5 2.5 0 0 0 2.368.56L2.5 0h11.25Z" fill="#1C1C1F"/>
        <path d="M11.25 3.125a.625.625 0 0 0-.625-.625h-3.75a.625.625 0 1 0 0 1.25h3.75c.345 0 .625-.28.625-.625ZM13.125 3.75a.625.625 0 1 1 0-1.25.625.625 0 0 1 0 1.25ZM13.125 8.75a.625.625 0 1 1 0-1.25.625.625 0 0 1 0 1.25ZM13.125 5a.625.625 0 1 1 0 1.25h-6.25a.625.625 0 1 1 0-1.25h6.25ZM11.25 8.125a.625.625 0 0 0-.625-.625h-3.75a.625.625 0 1 0 0 1.25h3.75c.345 0 .625-.28.625-.625ZM9.375 10a.625.625 0 1 1 0 1.25h-2.5a.625.625 0 1 1 0-1.25h2.5Z" fill="#1C1C1F"/>
        <path d="M20 11.25c0-.69-.56-1.25-1.25-1.25h-6.448c-.926 0-1.677.75-1.677 1.677" fill="#F0F0F7"/>
        <path fill-rule="evenodd" clip-rule="evenodd" d="M12.302 11.25h6.448v1.25c0 .69-.56 1.25-1.25 1.25h-6.118a4.6 4.6 0 0 0 .493-2.073c0-.236.191-.427.427-.427Zm-2.394 2.5c.456-.58.717-1.307.717-2.073 0-.926.75-1.677 1.677-1.677h6.448c.69 0 1.25.56 1.25 1.25v1.25a2.5 2.5 0 0 1-2.5 2.5H8.125l.646-.323a3.351 3.351 0 0 0 1.137-.927Z" fill="#1C1C1F"/>
    </g>
    <defs>
        <clipPath id="a">
            <path fill="#fff" d="M0 0h20v20H0z"/>
        </clipPath>
    </defs>
</svg>
